X: 574
T: Far Away
B: good tune book
B: tunes
M:3/4
R: waltz
Q: 1/4=100
K:Bminor
V:1 
|:FA||"Bm"B2>F2 Bd|"F#m" cA F2 FA|"Bm" B2>F2 Be|"A" c4 dc|
 "G"B2>G2 Bd|"F#m"cA F2 de|"Bm"fe dc "F#m"BA|1 "Bm" B4:|2 "Bm"B4||
 |:de||"D"f2>d2 fa|"A"ec A2 de|"D"f2>d2 fa|"Em"e4 de|
 "Bm"fd Be "A"cA|"G" dB Gc "F#m"AF|"Bm"F2 B2 "F#m"A2|1 "Bm"B4:|2 "Bm & last time G" B4||
% abcbook-tune_id 63dce34543500cf01fb392f2
% abcbook-tune_composer_id 
% abcbook-link-0 https://www.youtube.com/watch?v=0QoWds-CxJw
% abcbook-link-start-at-0 12
% abcbook-boost 0
% abcbook-difficulty 0
% abcbook-tags good tune book
% abcbook-tablature 
% abcbook-transpose 
% abcbook-tuning 
% abcbook-lastupdated 1675428043213
% abcbook-soundfonts 
% abcbook-repeats 1


